X: 7359
T:the Lark in the Morning
R:Jig
O:Ireland
M:6/8
K:ADor
AFA AFA|BGB BGB|1 AFA Ade|fed BdB :|2\
def afe|dBB BdB::
d2f aff|bff aff|1 def afe|edB BdB :|2\
gbg faf|edB BdB::
A2f fef|fef fef|1 A2f fef|edB BdB :|2\
g2e fef|edB BAB::
Add fdd|edd fdd|1 Add fdd|edB BdB :|2\
g2e fef|edB BdB:|
